packages/foundations/assets/icons/functional/images/transportation/car.svg

<svg xmlns="http://www.w3.org/2000/svg" width="32" height="32" fill="none"><path fill="#1A1C1F" fill-rule="evenodd" d="M12.773 5.073c-1.624.067-3.258.198-3.621.292a3.66 3.66 0 0 0-1.505.853c-.535.534-.61.742-1.441 3.955l-.735 2.84-1.362.002c-1.213.001-1.386.012-1.581.1-.435.197-.583.62-.543 1.548C2.03 15.728 2.319 16 3.403 16h.58l.034.815c.03.733.164 2.147.382 4.038.083.716.208 1.153.441 1.543l.147.244.026 1.551.027 1.55.161.314c.185.363.463.598.917.778.288.114.402.123 1.72.143.949.013 1.516-.001 1.732-.043.619-.122 1.037-.43 1.266-.933.1-.221.124-.382.141-.946l.02-.68.222.039c.297.052 8.135.051 9.061-.001l.733-.041v.551c0 .909.218 1.382.797 1.729.491.295.871.347 2.411.325 1.261-.018 1.373-.028 1.661-.142.454-.181.732-.417.917-.779l.161-.314.016-1.515.017-1.514.152-.25c.243-.396.376-.878.484-1.749a65 65 0 0 0 .351-3.926l.036-.787h.58c1.057 0 1.367-.276 1.419-1.26.046-.883-.059-1.259-.432-1.535-.142-.105-.235-.113-1.6-.138l-1.449-.027-.752-2.885c-.414-1.586-.813-3.014-.886-3.173-.355-.769-1.125-1.381-2.038-1.619-1.017-.264-6.706-.428-10.085-.29m5.04 1.967c1.808.048 4.166.177 4.507.245.254.051.595.272.71.461.104.17 1.437 5.191 1.39 5.238-.012.013-.478.002-1.035-.024-2.806-.13-7.388-.18-10.572-.115a246 246 0 0 0-4.197.115c-.557.027-1.023.038-1.036.024s.27-1.159.63-2.544c.433-1.665.698-2.586.779-2.714.166-.258.517-.421 1.027-.476.784-.083 2.392-.169 3.877-.207l1.76-.046c.147-.004 1.119.016 2.16.043m3.227 7.841c2.876.085 3.97.146 4.27.236.474.143.618.387.653 1.109.013.286.015.521.004.522l-1.179.153c-.985.127-1.187.169-1.347.278-.217.146-.455.576-.453.818.001.219.164.557.352.733.309.289.525.309 1.7.155.411-.054.752-.094.758-.089s-.046.541-.117 1.191c-.133 1.228-.203 1.497-.427 1.644-.355.233-2.988.631-5.147.779-1.312.09-6.718.09-8.08 0-2.985-.197-4.783-.477-5.268-.821-.253-.179-.302-.356-.438-1.6a33 33 0 0 1-.119-1.193c.006-.005.419.04.918.099 1.029.123 1.227.105 1.497-.132.322-.283.442-.634.343-1.002-.073-.271-.376-.617-.604-.688-.093-.029-.589-.104-1.103-.165-1.376-.166-1.226-.092-1.226-.606 0-.776.139-1.028.647-1.18.271-.081 2.598-.209 4.686-.257 1.821-.042 8.082-.032 9.68.016m-9.147 2.697c-.249.108-.519.376-.582.578-.027.09-.114.551-.191 1.025-.166 1.013-.145 1.181.187 1.512.342.343.808.4 1.217.149.275-.169.425-.444.498-.909l.064-.413h5.828l.063.402c.072.468.157.653.384.844a1 1 0 0 0 1.601-.508c.048-.178.034-.369-.082-1.077-.174-1.062-.2-1.148-.414-1.355-.358-.347-.172-.333-4.478-.331-3.368.002-3.934.014-4.095.083m13.12 6.822v.613h-2.031l.016-.437.015-.437.694-.118a48 48 0 0 0 1.266-.228c.022-.004.04.27.04.607M8 24.023l.893.17c.112.021.12.05.12.421v.399H6.987v-.593c0-.586.001-.592.12-.568.066.014.468.091.893.171"/></svg>

<svg width="32" height="32" viewBox="0 0 32 32" fill="none" xmlns="http://www.w3.org/2000/svg"><path d="M12.773 5.073 C 11.149 5.140,9.515 5.271,9.152 5.365 C 8.635 5.499,8.016 5.850,7.647 6.218 C 7.112 6.752,7.037 6.960,6.206 10.173 L 5.471 13.013 4.109 13.015 C 2.896 13.016,2.723 13.027,2.528 13.115 C 2.093 13.312,1.945 13.735,1.985 14.663 C 2.030 15.728,2.319 16.000,3.403 16.000 L 3.983 16.000 4.017 16.815 C 4.047 17.548,4.181 18.962,4.399 20.853 C 4.482 21.569,4.607 22.006,4.840 22.396 L 4.987 22.640 5.013 24.191 L 5.040 25.741 5.201 26.055 C 5.386 26.418,5.664 26.653,6.118 26.833 C 6.406 26.947,6.520 26.956,7.838 26.976 C 8.787 26.989,9.354 26.975,9.570 26.933 C 10.189 26.811,10.607 26.503,10.836 26.000 C 10.936 25.779,10.960 25.618,10.977 25.054 L 10.997 24.374 11.219 24.413 C 11.516 24.465,19.354 24.464,20.280 24.412 L 21.013 24.371 21.013 24.922 C 21.013 25.831,21.231 26.304,21.810 26.651 C 22.301 26.946,22.681 26.998,24.221 26.976 C 25.482 26.958,25.594 26.948,25.882 26.834 C 26.336 26.653,26.614 26.417,26.799 26.055 L 26.960 25.741 26.976 24.226 L 26.993 22.712 27.145 22.462 C 27.388 22.066,27.521 21.584,27.629 20.713 C 27.773 19.552,27.938 17.703,27.980 16.787 L 28.016 16.000 28.596 16.000 C 29.653 16.000,29.963 15.724,30.015 14.740 C 30.061 13.857,29.956 13.481,29.583 13.205 C 29.441 13.100,29.348 13.092,27.983 13.067 L 26.534 13.040 25.782 10.155 C 25.368 8.569,24.969 7.141,24.896 6.982 C 24.541 6.213,23.771 5.601,22.858 5.363 C 21.841 5.099,16.152 4.935,12.773 5.073 M17.813 7.040 C 19.621 7.088,21.979 7.217,22.320 7.285 C 22.574 7.336,22.915 7.557,23.030 7.746 C 23.134 7.916,24.467 12.937,24.420 12.984 C 24.408 12.997,23.942 12.986,23.385 12.960 C 20.579 12.830,15.997 12.780,12.813 12.845 C 11.061 12.882,9.172 12.933,8.616 12.960 C 8.059 12.987,7.593 12.998,7.580 12.984 C 7.566 12.970,7.850 11.825,8.210 10.440 C 8.643 8.775,8.908 7.854,8.989 7.726 C 9.155 7.468,9.506 7.305,10.016 7.250 C 10.800 7.167,12.408 7.081,13.893 7.043 C 14.715 7.022,15.507 7.001,15.653 6.997 C 15.800 6.993,16.772 7.013,17.813 7.040 M21.040 14.881 C 23.916 14.966,25.010 15.027,25.310 15.117 C 25.784 15.260,25.928 15.504,25.963 16.226 C 25.976 16.512,25.978 16.747,25.967 16.748 C 25.956 16.749,25.425 16.818,24.788 16.901 C 23.803 17.028,23.601 17.070,23.441 17.179 C 23.224 17.325,22.986 17.755,22.988 17.997 C 22.989 18.216,23.152 18.554,23.340 18.730 C 23.649 19.019,23.865 19.039,25.040 18.885 C 25.451 18.831,25.792 18.791,25.798 18.796 C 25.804 18.801,25.752 19.337,25.681 19.987 C 25.548 21.215,25.478 21.484,25.254 21.631 C 24.899 21.864,22.266 22.262,20.107 22.410 C 18.795 22.500,13.389 22.500,12.027 22.410 C 9.042 22.213,7.244 21.933,6.759 21.589 C 6.506 21.410,6.457 21.233,6.321 19.989 C 6.250 19.337,6.196 18.800,6.202 18.796 C 6.208 18.791,6.621 18.836,7.120 18.895 C 8.149 19.018,8.347 19.000,8.617 18.763 C 8.939 18.480,9.059 18.129,8.960 17.761 C 8.887 17.490,8.584 17.144,8.356 17.073 C 8.263 17.044,7.767 16.969,7.253 16.908 C 5.877 16.742,6.027 16.816,6.027 16.302 C 6.027 15.526,6.166 15.274,6.674 15.122 C 6.945 15.041,9.272 14.913,11.360 14.865 C 13.181 14.823,19.442 14.833,21.040 14.881 M11.893 17.578 C 11.644 17.686,11.374 17.954,11.311 18.156 C 11.284 18.246,11.197 18.707,11.120 19.181 C 10.954 20.194,10.975 20.362,11.307 20.693 C 11.649 21.036,12.115 21.093,12.524 20.842 C 12.799 20.673,12.949 20.398,13.022 19.933 L 13.086 19.520 16.000 19.520 L 18.914 19.520 18.977 19.922 C 19.049 20.390,19.134 20.575,19.361 20.766 C 19.913 21.231,20.774 20.958,20.962 20.258 C 21.010 20.080,20.996 19.889,20.880 19.181 C 20.706 18.119,20.680 18.033,20.466 17.826 C 20.108 17.479,20.294 17.493,15.988 17.495 C 12.620 17.497,12.054 17.509,11.893 17.578 M25.013 24.400 L 25.013 25.013 23.998 25.013 L 22.982 25.013 22.998 24.576 L 23.013 24.139 23.707 24.021 C 24.088 23.957,24.520 23.880,24.667 23.851 C 24.813 23.822,24.951 23.796,24.973 23.793 C 24.995 23.789,25.013 24.063,25.013 24.400 M8.000 24.023 C 8.425 24.104,8.827 24.180,8.893 24.193 C 9.005 24.214,9.013 24.243,9.013 24.614 L 9.013 25.013 8.000 25.013 L 6.987 25.013 6.987 24.420 C 6.987 23.834,6.988 23.828,7.107 23.852 C 7.173 23.866,7.575 23.943,8.000 24.023 " fill="#1A1C1F" stroke="none" fill-rule="evenodd"></path></svg>
